X:1
T: The Marchioness of Huntly's Favourite
C:William Marshall
R:Strathspey
Q: 128
K:Cm
M:4/4
L:1/16
|:G2|c3d c2e2 G2G2 G3E|F3E D2C2 B,4 B,2G2|c3d c2e2 G2G2 G2E2|F2E2 G2=B,2 C4 C2G2|
c3d c2e2 G2G2 G3E|F3E D2C2 B,4 B,2D2|C2E2 D2F2 E2G2 F2e2|g3f e2d2 c4 c2G2|
c3d e3f edcB G4|B=ABc Bcdc B4 B2d2|c3d e3f gfef g2e2|agfe dfed c4 c2G2|
c3d e3f edcB G4|B=ABc Bcdc B4 B2d2|egfe dfed c=Bcd e2E2|D2A2 G2=B,2 C4 C2:|
